static/cards/FrenchDeck/cyberwave/card_hearts_03.svg

<svg xmlns="http://www.w3.org/2000/svg" width="822" height="1122" fill="none" viewBox="0 0 822 1122"><rect width="822" height="1122" fill="#1a0033" rx="20"/><g fill="#b366ff" clip-path="url(#a)"><path d="M119.787 160.92q-9.217 0-16.384-1.536-7.17-1.536-11.777-4.48-.767-.512-.895-.896-.129-.384.256-1.152l1.663-2.816q.384-.768.896-.768.257 0 .896.384 9.217 5.376 24.961 5.376 12.671 0 18.944-5.504 6.4-5.504 6.4-14.592 0-9.216-5.376-13.568-5.376-4.48-16.128-4.48h-11.136q-2.944 0-2.944-2.816v-.896q0-1.408.64-1.92.768-.64 2.304-.64h12.032q8.703 0 13.184-4.992 4.608-5.12 4.608-12.288 0-8.705-6.016-13.056-6.016-4.352-17.152-4.352-6.912 0-12.672 1.536-5.76 1.408-9.6 3.84-.512.384-.897.384-.511 0-.895-.768l-1.665-2.816a1.58 1.58 0 0 1-.256-.896q.001-.64.896-1.152 3.84-2.688 10.753-4.352 6.912-1.665 14.848-1.664 13.567 0 21.376 6.4 7.935 6.4 7.936 16.896 0 6.528-3.456 12.16t-9.728 8.192q8.448 2.56 12.159 7.808 3.841 5.248 3.841 13.44 0 7.553-3.712 13.44-3.585 5.887-10.752 9.216-7.04 3.328-17.152 3.328M120.798 218.497c-10.18-10.18-26.685-10.18-36.865 0s-10.18 26.685 0 36.865l33.179 33.179a5.213 5.213 0 0 0 7.373 0l33.179-33.179-.004-.003c9.814-10.207 9.692-26.436-.365-36.493s-26.287-10.179-36.493-.365zM694.213 957.08q9.216 0 16.384 1.536t11.776 4.48q.768.512.896.896.129.384-.256 1.152l-1.664 2.816q-.383.768-.896.768-.255 0-.896-.384-9.216-5.376-24.96-5.376-12.671 0-18.944 5.504-6.4 5.504-6.4 14.592 0 9.216 5.376 13.568 5.376 4.48 16.128 4.478h11.136q2.944 0 2.944 2.82v.89q0 1.41-.64 1.92c-.512.43-1.28.64-2.304.64h-12.032c-5.802 0-10.197 1.67-13.184 5-3.072 3.41-4.608 7.51-4.608 12.28 0 5.81 2.006 10.16 6.016 13.06q6.016 4.35 17.152 4.35 6.912 0 12.672-1.53 5.76-1.41 9.6-3.84.513-.39.896-.39c.342 0 .64.26.896.77l1.664 2.82c.171.25.256.55.256.89 0 .43-.298.81-.896 1.15-2.56 1.8-6.144 3.25-10.752 4.36s-9.557 1.66-14.848 1.66c-9.045 0-16.17-2.13-21.376-6.4-5.29-4.27-7.936-9.9-7.936-16.9 0-4.35 1.152-8.4 3.456-12.16q3.456-5.625 9.728-8.19c-5.632-1.7-9.685-4.31-12.159-7.806q-3.841-5.249-3.841-13.44 0-7.552 3.712-13.44 3.585-5.887 10.752-9.216 7.04-3.328 17.152-3.328M693.202 899.503c10.18 10.18 26.685 10.18 36.865 0s10.18-26.685 0-36.865l-33.179-33.179a5.213 5.213 0 0 0-7.373 0l-33.179 33.179.004.003c-9.814 10.207-9.692 26.436.365 36.493s26.287 10.179 36.493.365z"/></g><path stroke="#b366ff" stroke-width="8" d="M293.261 626.326c8.618-8.618 22.59-8.619 31.209-.001l2.777 2.777 2.827-2.718c8.639-8.306 22.379-8.203 30.892.31 8.514 8.514 8.617 22.254.31 30.893l-.137.143-32.983 32.982a1.213 1.213 0 0 1-1.716.001l-33.179-33.179c-8.618-8.618-8.618-22.59 0-31.208ZM461.261 626.326c8.618-8.618 22.59-8.619 31.209-.001l2.777 2.777 2.827-2.718c8.639-8.306 22.379-8.203 30.892.31 8.514 8.514 8.617 22.254.31 30.893l-.137.143-32.983 32.982a1.213 1.213 0 0 1-1.716.001l-33.179-33.179c-8.618-8.618-8.618-22.59 0-31.208ZM377.261 464.326c8.618-8.618 22.59-8.619 31.209-.001l2.777 2.777 2.827-2.718c8.639-8.306 22.379-8.203 30.892.31 8.514 8.514 8.617 22.254.31 30.893l-.137.143-32.983 32.982a1.213 1.213 0 0 1-1.716.001l-33.179-33.179c-8.618-8.618-8.618-22.59 0-31.208Z"/><defs><clipPath id="a"><path fill="#fff" d="M46 48h722v1022H46z"/></clipPath></defs></svg>

<svg width="822" height="1122" viewBox="0 0 822 1122" fill="none" xmlns="http://www.w3.org/2000/svg">
<rect width="822" height="1122" rx="20" fill="#1A0033"/>
<g clip-path="url(#clip0_31_986)">
<path d="M119.787 160.92C113.643 160.92 108.181 160.408 103.403 159.384C98.6238 158.36 94.6985 156.867 91.6265 154.904C91.1145 154.563 90.8158 154.264 90.7305 154.008C90.6452 153.752 90.7305 153.368 90.9865 152.856L92.6505 150.04C92.9065 149.528 93.2052 149.272 93.5465 149.272C93.7172 149.272 94.0158 149.4 94.4425 149.656C100.587 153.24 108.907 155.032 119.403 155.032C127.851 155.032 134.165 153.197 138.347 149.528C142.613 145.859 144.747 140.995 144.747 134.936C144.747 128.792 142.955 124.269 139.371 121.368C135.787 118.381 130.411 116.888 123.243 116.888H112.107C110.144 116.888 109.163 115.949 109.163 114.072V113.176C109.163 112.237 109.376 111.597 109.803 111.256C110.315 110.829 111.083 110.616 112.107 110.616H124.139C129.941 110.616 134.336 108.952 137.323 105.624C140.395 102.211 141.931 98.1147 141.931 93.336C141.931 87.5333 139.925 83.1813 135.915 80.28C131.904 77.3787 126.187 75.928 118.763 75.928C114.155 75.928 109.931 76.44 106.091 77.464C102.251 78.4027 99.0505 79.6827 96.4905 81.304C96.1492 81.56 95.8505 81.688 95.5945 81.688C95.2532 81.688 94.9545 81.432 94.6985 80.92L93.0345 78.104C92.8638 77.848 92.7785 77.5493 92.7785 77.208C92.7785 76.7813 93.0772 76.3973 93.6745 76.056C96.2345 74.264 99.8185 72.8133 104.427 71.704C109.035 70.5947 113.984 70.04 119.275 70.04C128.32 70.04 135.445 72.1733 140.651 76.44C145.941 80.7067 148.587 86.3387 148.587 93.336C148.587 97.688 147.435 101.741 145.131 105.496C142.827 109.251 139.584 111.981 135.403 113.688C141.035 115.395 145.088 117.997 147.562 121.496C150.123 124.995 151.403 129.475 151.403 134.936C151.403 139.971 150.165 144.451 147.691 148.376C145.301 152.301 141.717 155.373 136.939 157.592C132.245 159.811 126.528 160.92 119.787 160.92Z" fill="#B366FF"/>
<path d="M120.798 218.497C110.618 208.317 94.1128 208.317 83.9327 218.497C73.7526 228.677 73.7526 245.182 83.9327 255.362L117.112 288.541C119.148 290.577 122.449 290.577 124.485 288.541L157.664 255.362L157.66 255.359C167.474 245.152 167.352 228.923 157.295 218.866C147.238 208.809 131.008 208.687 120.802 218.501L120.798 218.497Z" fill="#B366FF"/>
<path d="M694.213 957.08C700.357 957.08 705.819 957.592 710.597 958.616C715.376 959.64 719.301 961.133 722.373 963.096C722.885 963.437 723.184 963.736 723.269 963.992C723.355 964.248 723.269 964.632 723.013 965.144L721.349 967.96C721.093 968.472 720.795 968.728 720.453 968.728C720.283 968.728 719.984 968.6 719.557 968.344C713.413 964.76 705.093 962.968 694.597 962.968C686.149 962.968 679.835 964.803 675.653 968.472C671.387 972.141 669.253 977.005 669.253 983.064C669.253 989.208 671.045 993.731 674.629 996.632C678.213 999.619 683.589 1001.11 690.757 1001.11H701.893C703.856 1001.11 704.837 1002.05 704.837 1003.93V1004.82C704.837 1005.76 704.624 1006.4 704.197 1006.74C703.685 1007.17 702.917 1007.38 701.893 1007.38H689.861C684.059 1007.38 679.664 1009.05 676.677 1012.38C673.605 1015.79 672.069 1019.89 672.069 1024.66C672.069 1030.47 674.075 1034.82 678.085 1037.72C682.096 1040.62 687.813 1042.07 695.237 1042.07C699.845 1042.07 704.069 1041.56 707.909 1040.54C711.749 1039.6 714.949 1038.32 717.509 1036.7C717.851 1036.44 718.149 1036.31 718.405 1036.31C718.747 1036.31 719.045 1036.57 719.301 1037.08L720.965 1039.9C721.136 1040.15 721.221 1040.45 721.221 1040.79C721.221 1041.22 720.923 1041.6 720.325 1041.94C717.765 1043.74 714.181 1045.19 709.573 1046.3C704.965 1047.41 700.016 1047.96 694.725 1047.96C685.68 1047.96 678.555 1045.83 673.349 1041.56C668.059 1037.29 665.413 1031.66 665.413 1024.66C665.413 1020.31 666.565 1016.26 668.869 1012.5C671.173 1008.75 674.416 1006.02 678.597 1004.31C672.965 1002.61 668.912 1000 666.438 996.504C663.877 993.005 662.597 988.525 662.597 983.064C662.597 978.029 663.835 973.549 666.309 969.624C668.699 965.699 672.283 962.627 677.061 960.408C681.755 958.189 687.472 957.08 694.213 957.08Z" fill="#B366FF"/>
<path d="M693.202 899.503C703.382 909.683 719.887 909.683 730.067 899.503C740.247 889.323 740.247 872.818 730.067 862.638L696.888 829.459C694.852 827.423 691.551 827.423 689.515 829.459L656.336 862.638L656.34 862.641C646.526 872.848 646.648 889.077 656.705 899.134C666.762 909.191 682.992 909.313 693.198 899.499L693.202 899.503Z" fill="#B366FF"/>
</g>
<path d="M293.261 626.326C301.879 617.708 315.851 617.707 324.47 626.325L327.247 629.102L330.074 626.384C338.713 618.078 352.453 618.181 360.966 626.694C369.48 635.208 369.583 648.948 361.276 657.587L361.139 657.73L328.156 690.712C327.682 691.186 326.914 691.187 326.44 690.713L293.261 657.534C284.643 648.916 284.643 634.944 293.261 626.326Z" stroke="#B366FF" stroke-width="8"/>
<path d="M461.261 626.326C469.879 617.708 483.851 617.707 492.47 626.325L495.247 629.102L498.074 626.384C506.713 618.078 520.453 618.181 528.966 626.694C537.48 635.208 537.583 648.948 529.276 657.587L529.139 657.73L496.156 690.712C495.682 691.186 494.914 691.187 494.44 690.713L461.261 657.534C452.643 648.916 452.643 634.944 461.261 626.326Z" stroke="#B366FF" stroke-width="8"/>
<path d="M377.261 464.326C385.879 455.708 399.851 455.707 408.47 464.325L411.247 467.102L414.074 464.384C422.713 456.078 436.453 456.181 444.966 464.694C453.48 473.208 453.583 486.948 445.276 495.587L445.139 495.73L412.156 528.712C411.682 529.186 410.914 529.187 410.44 528.713L377.261 495.534C368.643 486.916 368.643 472.944 377.261 464.326Z" stroke="#B366FF" stroke-width="8"/>
<defs>
<clipPath id="clip0_31_986">
<rect width="722" height="1022" fill="white" transform="translate(46 48)"/>
</clipPath>
</defs>
</svg>
